assets/2_hearts.svg

<svg width="822" height="1122" fill="none" xmlns="http://www.w3.org/2000/svg"><rect width="822" height="1122" rx="50" fill="#F1F7EE"/><path d="M335.018 1063.6v17c0 .93-.466 1.63-1.4 2.1-2.866 1.53-6.433 2.83-10.7 3.9-4.2 1.07-8.666 1.6-13.4 1.6-4.666 0-9.133-.9-13.4-2.7-4.266-1.8-7.666-4.33-10.2-7.6-4.866-6.4-7.3-14.73-7.3-25 0-6.27.934-11.77 2.8-16.5 1.934-4.8 4.467-8.53 7.6-11.2 6.134-5.2 13.167-7.8 21.1-7.8 8 0 14.867 1.77 20.6 5.3.934.53 1.4 1.27 1.4 2.2v12.5c0 1-.5 1.5-1.5 1.5h-5.7c-1 0-1.466-.5-1.4-1.5l.3-6.7c-4.2-3-8.766-4.5-13.7-4.5-4.866 0-8.8 1.23-11.8 3.7-2.933 2.4-4.966 5.4-6.1 9-1.066 3.53-1.6 7.83-1.6 12.9 0 5 .6 9.5 1.8 13.5 1.267 4 3.5 7.33 6.7 10 3.267 2.67 7.467 4 12.6 4 5.2 0 9.534-1.17 13-3.5v-12.2h-6.4c-1 0-1.5-.5-1.5-1.5v-5c0-1 .5-1.5 1.5-1.5h22c1 0 1.5.5 1.5 1.5v5c0 1-.5 1.5-1.5 1.5h-5.3Zm29.432 15.5h6.3c1 0 1.5.5 1.5 1.5v4.9c0 1-.5 1.5-1.5 1.5h-23.8c-1 0-1.5-.5-1.5-1.5v-4.9c0-1 .5-1.5 1.5-1.5h6.3v-33.4h-5.4c-1 0-1.5-.5-1.5-1.5v-5.2c0-1 .5-1.5 1.5-1.5h15.1c1 0 1.5.5 1.5 1.5v40.1Zm-12.1-50.5c-1.267-1.33-1.9-3.03-1.9-5.1s.633-3.77 1.9-5.1c1.333-1.4 3.066-2.1 5.2-2.1 2.2 0 3.933.7 5.2 2.1 1.333 1.33 2 3.03 2 5.1s-.667 3.77-2 5.1c-1.334 1.33-3.1 2-5.3 2-2.134 0-3.834-.67-5.1-2Zm37.394 10.3 11.6 37 10.5-30.2h-5.1c-1 0-1.5-.5-1.5-1.5v-5.2c0-1 .5-1.5 1.5-1.5h14.6c.8 0 1.333.23 1.6.7.267.47.4.9.4 1.3 0 .33-.067.67-.2 1l-17.1 45.1c-.267.93-.933 1.4-2 1.4h-8.6c-.933 0-1.6-.47-2-1.4l-13.7-39.9h-5c-1 0-1.5-.5-1.5-1.5v-5.2c0-1 .5-1.5 1.5-1.5h13.1c1 0 1.633.47 1.9 1.4Zm61.856 49.3c-7.934 0-13.767-2.3-17.5-6.9-3.667-4.67-5.5-10.8-5.5-18.4 0-7.67 1.966-14 5.9-19 3.933-5 9.6-7.5 17-7.5 3.666 0 6.8.7 9.4 2.1 2.666 1.33 4.7 3.17 6.1 5.5 2.666 4.53 4 9.77 4 15.7 0 2.8-.134 4.33-.4 4.6-.267.27-.767.4-1.5.4h-29.4c.333 4.8 1.5 8.53 3.5 11.2 2.066 2.6 5.6 3.9 10.6 3.9 3.666 0 7.433-.87 11.3-2.6.933-.47 1.6-.2 2 .8l1.9 4.6c.333.8.033 1.47-.9 2-4.4 2.4-9.9 3.6-16.5 3.6Zm-11.9-30.9h20.8c.133-8.33-3.134-12.5-9.8-12.5-3.934 0-6.734 1.27-8.4 3.8-1.6 2.47-2.467 5.37-2.6 8.7Zm77.445-15c-5.867 0-9.2 2.87-10 8.6-.133.73-.333 1.23-.6 1.5-.267.27-.767.4-1.5.4h-5.2c-1.2 0-1.8-.5-1.8-1.5 0-5.47 1.9-9.73 5.7-12.8 3.8-3.07 8.733-4.6 14.8-4.6s10.8 1.43 14.2 4.3c3.467 2.8 5.2 7.03 5.2 12.7 0 9.07-5.833 17.1-17.5 24.1-1.867 1.13-4.1 2.4-6.7 3.8h20.6l-.4-5c-.067-.73.033-1.23.3-1.5s.767-.4 1.5-.4h4.7c.733 0 1.233.13 1.5.4.267.27.4.77.4 1.5v16.6c0 .73-.133 1.23-.4 1.5s-.767.4-1.5.4h-4.7c-.733 0-1.233-.13-1.5-.4-.267-.27-.367-.77-.3-1.5l.3-3.4h-34c-.733 0-1.233-.13-1.5-.4-.267-.27-.4-.77-.4-1.5v-4.1c0-1.2.567-2.07 1.7-2.6 6.933-3.6 12.767-7.27 17.5-11 5.933-4.6 8.9-9.83 8.9-15.7 0-2.93-.667-5.23-2-6.9s-3.767-2.5-7.3-2.5ZM120.845 107.9c-17.6 0-27.6 8.6-30 25.8-.4 2.2-1 3.7-1.8 4.5-.8.8-2.3 1.2-4.5 1.2h-15.6c-3.6 0-5.4-1.5-5.4-4.5 0-16.4 5.7-29.2 17.1-38.4 11.4-9.2 26.2-13.8 44.4-13.8s32.4 4.3 42.6 12.9c10.4 8.4 15.6 21.1 15.6 38.1 0 27.2-17.5 51.3-52.5 72.3-5.6 3.4-12.3 7.2-20.1 11.4h61.8l-1.2-15c-.2-2.2.1-3.7.9-4.5.8-.8 2.3-1.2 4.5-1.2h14.1c2.2 0 3.7.4 4.5 1.2.8.8 1.2 2.3 1.2 4.5v49.8c0 2.2-.4 3.7-1.2 4.5-.8.8-2.3 1.2-4.5 1.2h-14.1c-2.2 0-3.7-.4-4.5-1.2-.8-.8-1.1-2.3-.9-4.5l.9-10.2h-102c-2.2 0-3.7-.4-4.5-1.2-.8-.8-1.2-2.3-1.2-4.5V224c0-3.6 1.7-6.2 5.1-7.8 20.8-10.8 38.3-21.8 52.5-33 17.8-13.8 26.7-29.5 26.7-47.1 0-8.8-2-15.7-6-20.7s-11.3-7.5-21.9-7.5Z" fill="#000"/><path d="M172.289 328.69a26.362 26.362 0 0 0-28.682-5.691 26.3 26.3 0 0 0-8.537 5.691l-5.071 5.057-5.071-5.057a26.356 26.356 0 0 0-18.61-7.687 26.355 26.355 0 0 0-18.61 7.687A26.21 26.21 0 0 0 80 347.249a26.21 26.21 0 0 0 7.708 18.559l5.071 5.058 33.689 33.597a5 5 0 0 0 7.061 0l33.689-33.597 5.071-5.058a26.222 26.222 0 0 0 5.707-8.514 26.184 26.184 0 0 0-5.707-28.604Z" fill="#F7081D"/><mask id="a" style="mask-type:alpha" maskUnits="userSpaceOnUse" x="130" y="321" width="50" height="85"><path fill="#D9D9D9" d="M130 321h50v84.916h-50z"/></mask><g mask="url(#a)"><path d="M172.289 328.69a26.362 26.362 0 0 0-28.682-5.691 26.3 26.3 0 0 0-8.537 5.691l-5.071 5.057-5.071-5.057a26.356 26.356 0 0 0-18.61-7.687 26.355 26.355 0 0 0-18.61 7.687A26.21 26.21 0 0 0 80 347.249a26.21 26.21 0 0 0 7.708 18.559l5.071 5.058 33.689 33.597a5 5 0 0 0 7.061 0l33.689-33.597 5.071-5.058a26.222 26.222 0 0 0 5.707-8.514 26.184 26.184 0 0 0-5.707-28.604Z" fill="#DC1021"/></g><path d="M562.395 432.53a94.225 94.225 0 0 0-30.565-20.375 94.417 94.417 0 0 0-72.115 0 94.203 94.203 0 0 0-30.565 20.375l-18.155 18.105-18.154-18.105c-17.669-17.621-41.634-27.521-66.622-27.521-24.989 0-48.954 9.9-66.623 27.521A93.838 93.838 0 0 0 232 498.972a93.834 93.834 0 0 0 27.596 66.442l18.154 18.105 119.122 118.799c7.806 7.785 20.44 7.785 28.246 0l119.123-118.799 18.154-18.105a93.929 93.929 0 0 0 20.43-30.482 93.713 93.713 0 0 0 0-71.92 93.929 93.929 0 0 0-20.43-30.482Z" fill="#F7081D"/><mask id="b" style="mask-type:alpha" maskUnits="userSpaceOnUse" x="411" y="405" width="179" height="304"><path fill="#D9D9D9" d="M411 405h179v304H411z"/></mask><g mask="url(#b)"><path d="M562.395 432.53a94.225 94.225 0 0 0-30.565-20.375 94.417 94.417 0 0 0-72.115 0 94.203 94.203 0 0 0-30.565 20.375l-18.155 18.105-18.154-18.105c-17.669-17.621-41.634-27.521-66.622-27.521-24.989 0-48.954 9.9-66.623 27.521A93.838 93.838 0 0 0 232 498.972a93.834 93.834 0 0 0 27.596 66.442l18.154 18.105 119.122 118.799c7.806 7.785 20.44 7.785 28.246 0l119.123-118.799 18.154-18.105a93.929 93.929 0 0 0 20.43-30.482 93.713 93.713 0 0 0 0-71.92 93.929 93.929 0 0 0-20.43-30.482Z" fill="#DC1021"/></g></svg>

<svg width="822" height="1122" viewBox="0 0 822 1122" fill="none" xmlns="http://www.w3.org/2000/svg">
<rect width="822" height="1122" rx="50" fill="#F1F7EE"/>
<path d="M335.018 1063.6V1080.6C335.018 1081.53 334.552 1082.23 333.618 1082.7C330.752 1084.23 327.185 1085.53 322.918 1086.6C318.718 1087.67 314.252 1088.2 309.518 1088.2C304.852 1088.2 300.385 1087.3 296.118 1085.5C291.852 1083.7 288.452 1081.17 285.918 1077.9C281.052 1071.5 278.618 1063.17 278.618 1052.9C278.618 1046.63 279.552 1041.13 281.418 1036.4C283.352 1031.6 285.885 1027.87 289.018 1025.2C295.152 1020 302.185 1017.4 310.118 1017.4C318.118 1017.4 324.985 1019.17 330.718 1022.7C331.652 1023.23 332.118 1023.97 332.118 1024.9V1037.4C332.118 1038.4 331.618 1038.9 330.618 1038.9H324.918C323.918 1038.9 323.452 1038.4 323.518 1037.4L323.818 1030.7C319.618 1027.7 315.052 1026.2 310.118 1026.2C305.252 1026.2 301.318 1027.43 298.318 1029.9C295.385 1032.3 293.352 1035.3 292.218 1038.9C291.152 1042.43 290.618 1046.73 290.618 1051.8C290.618 1056.8 291.218 1061.3 292.418 1065.3C293.685 1069.3 295.918 1072.63 299.118 1075.3C302.385 1077.97 306.585 1079.3 311.718 1079.3C316.918 1079.3 321.252 1078.13 324.718 1075.8V1063.6H318.318C317.318 1063.6 316.818 1063.1 316.818 1062.1V1057.1C316.818 1056.1 317.318 1055.6 318.318 1055.6H340.318C341.318 1055.6 341.818 1056.1 341.818 1057.1V1062.1C341.818 1063.1 341.318 1063.6 340.318 1063.6H335.018ZM364.45 1079.1H370.75C371.75 1079.1 372.25 1079.6 372.25 1080.6V1085.5C372.25 1086.5 371.75 1087 370.75 1087H346.95C345.95 1087 345.45 1086.5 345.45 1085.5V1080.6C345.45 1079.6 345.95 1079.1 346.95 1079.1C346.95 1079.1 349.05 1079.1 353.25 1079.1V1045.7H347.85C346.85 1045.7 346.35 1045.2 346.35 1044.2V1039C346.35 1038 346.85 1037.5 347.85 1037.5H362.95C363.95 1037.5 364.45 1038 364.45 1039V1079.1ZM352.35 1028.6C351.083 1027.27 350.45 1025.57 350.45 1023.5C350.45 1021.43 351.083 1019.73 352.35 1018.4C353.683 1017 355.416 1016.3 357.55 1016.3C359.75 1016.3 361.483 1017 362.75 1018.4C364.083 1019.73 364.75 1021.43 364.75 1023.5C364.75 1025.57 364.083 1027.27 362.75 1028.6C361.416 1029.93 359.65 1030.6 357.45 1030.6C355.316 1030.6 353.616 1029.93 352.35 1028.6ZM389.744 1038.9L401.344 1075.9L411.844 1045.7H406.744C405.744 1045.7 405.244 1045.2 405.244 1044.2V1039C405.244 1038 405.744 1037.5 406.744 1037.5H421.344C422.144 1037.5 422.677 1037.73 422.944 1038.2C423.211 1038.67 423.344 1039.1 423.344 1039.5C423.344 1039.83 423.277 1040.17 423.144 1040.5L406.044 1085.6C405.777 1086.53 405.111 1087 404.044 1087H395.444C394.511 1087 393.844 1086.53 393.444 1085.6L379.744 1045.7H374.744C373.744 1045.7 373.244 1045.2 373.244 1044.2V1039C373.244 1038 373.744 1037.5 374.744 1037.5H387.844C388.844 1037.5 389.477 1037.97 389.744 1038.9ZM451.6 1088.2C443.666 1088.2 437.833 1085.9 434.1 1081.3C430.433 1076.63 428.6 1070.5 428.6 1062.9C428.6 1055.23 430.566 1048.9 434.5 1043.9C438.433 1038.9 444.1 1036.4 451.5 1036.4C455.166 1036.4 458.3 1037.1 460.9 1038.5C463.566 1039.83 465.6 1041.67 467 1044C469.666 1048.53 471 1053.77 471 1059.7C471 1062.5 470.866 1064.03 470.6 1064.3C470.333 1064.57 469.833 1064.7 469.1 1064.7H439.7C440.033 1069.5 441.2 1073.23 443.2 1075.9C445.266 1078.5 448.8 1079.8 453.8 1079.8C457.466 1079.8 461.233 1078.93 465.1 1077.2C466.033 1076.73 466.7 1077 467.1 1078L469 1082.6C469.333 1083.4 469.033 1084.07 468.1 1084.6C463.7 1087 458.2 1088.2 451.6 1088.2ZM439.7 1057.3H460.5C460.633 1048.97 457.366 1044.8 450.7 1044.8C446.766 1044.8 443.966 1046.07 442.3 1048.6C440.7 1051.07 439.833 1053.97 439.7 1057.3ZM517.145 1042.3C511.278 1042.3 507.945 1045.17 507.145 1050.9C507.012 1051.63 506.812 1052.13 506.545 1052.4C506.278 1052.67 505.778 1052.8 505.045 1052.8H499.845C498.645 1052.8 498.045 1052.3 498.045 1051.3C498.045 1045.83 499.945 1041.57 503.745 1038.5C507.545 1035.43 512.478 1033.9 518.545 1033.9C524.612 1033.9 529.345 1035.33 532.745 1038.2C536.212 1041 537.945 1045.23 537.945 1050.9C537.945 1059.97 532.112 1068 520.445 1075C518.578 1076.13 516.345 1077.4 513.745 1078.8H534.345L533.945 1073.8C533.878 1073.07 533.978 1072.57 534.245 1072.3C534.512 1072.03 535.012 1071.9 535.745 1071.9H540.445C541.178 1071.9 541.678 1072.03 541.945 1072.3C542.212 1072.57 542.345 1073.07 542.345 1073.8V1090.4C542.345 1091.13 542.212 1091.63 541.945 1091.9C541.678 1092.17 541.178 1092.3 540.445 1092.3H535.745C535.012 1092.3 534.512 1092.17 534.245 1091.9C533.978 1091.63 533.878 1091.13 533.945 1090.4L534.245 1087H500.245C499.512 1087 499.012 1086.87 498.745 1086.6C498.478 1086.33 498.345 1085.83 498.345 1085.1V1081C498.345 1079.8 498.912 1078.93 500.045 1078.4C506.978 1074.8 512.812 1071.13 517.545 1067.4C523.478 1062.8 526.445 1057.57 526.445 1051.7C526.445 1048.77 525.778 1046.47 524.445 1044.8C523.112 1043.13 520.678 1042.3 517.145 1042.3Z" fill="black"/>
<path d="M120.845 107.9C103.245 107.9 93.2449 116.5 90.8449 133.7C90.4449 135.9 89.8449 137.4 89.0449 138.2C88.2449 139 86.7449 139.4 84.5449 139.4H68.9449C65.3449 139.4 63.5449 137.9 63.5449 134.9C63.5449 118.5 69.2449 105.7 80.6449 96.5C92.0449 87.3 106.845 82.7 125.045 82.7C143.245 82.7 157.445 87 167.645 95.6C178.045 104 183.245 116.7 183.245 133.7C183.245 160.9 165.745 185 130.745 206C125.145 209.4 118.445 213.2 110.645 217.4H172.445L171.245 202.4C171.045 200.2 171.345 198.7 172.145 197.9C172.945 197.1 174.445 196.7 176.645 196.7H190.745C192.945 196.7 194.445 197.1 195.245 197.9C196.045 198.7 196.445 200.2 196.445 202.4V252.2C196.445 254.4 196.045 255.9 195.245 256.7C194.445 257.5 192.945 257.9 190.745 257.9H176.645C174.445 257.9 172.945 257.5 172.145 256.7C171.345 255.9 171.045 254.4 171.245 252.2L172.145 242H70.1449C67.9449 242 66.4449 241.6 65.6449 240.8C64.8449 240 64.4449 238.5 64.4449 236.3V224C64.4449 220.4 66.1449 217.8 69.5449 216.2C90.3449 205.4 107.845 194.4 122.045 183.2C139.845 169.4 148.745 153.7 148.745 136.1C148.745 127.3 146.745 120.4 142.745 115.4C138.745 110.4 131.445 107.9 120.845 107.9Z" fill="black"/>
<path d="M172.289 328.69C169.846 326.252 166.944 324.318 163.751 322.999C160.558 321.679 157.136 321 153.679 321C150.223 321 146.801 321.679 143.607 322.999C140.414 324.318 137.513 326.252 135.07 328.69L129.999 333.747L124.928 328.69C119.992 323.768 113.298 321.003 106.318 321.003C99.3381 321.003 92.644 323.768 87.7084 328.69C82.7728 333.612 80 340.288 80 347.249C80 354.21 82.7728 360.886 87.7084 365.808L92.7794 370.866L126.468 404.463C128.42 406.409 131.578 406.409 133.529 404.463L167.218 370.866L172.289 365.808C174.734 363.372 176.673 360.478 177.996 357.294C179.319 354.109 180 350.696 180 347.249C180 343.802 179.319 340.389 177.996 337.205C176.673 334.02 174.734 331.127 172.289 328.69Z" fill="#F7081D"/>
<mask id="mask0_1023_4743" style="mask-type:alpha" maskUnits="userSpaceOnUse" x="130" y="321" width="50" height="85">
<rect x="130" y="321" width="50" height="84.9162" fill="#D9D9D9"/>
</mask>
<g mask="url(#mask0_1023_4743)">
<path d="M172.289 328.69C169.846 326.252 166.944 324.318 163.751 322.999C160.558 321.679 157.136 321 153.679 321C150.223 321 146.801 321.679 143.607 322.999C140.414 324.318 137.513 326.252 135.07 328.69L129.999 333.747L124.928 328.69C119.992 323.768 113.298 321.003 106.318 321.003C99.3381 321.003 92.644 323.768 87.7084 328.69C82.7728 333.612 80 340.288 80 347.249C80 354.21 82.7728 360.886 87.7084 365.808L92.7794 370.866L126.468 404.463C128.42 406.409 131.578 406.409 133.529 404.463L167.218 370.866L172.289 365.808C174.734 363.372 176.673 360.478 177.996 357.294C179.319 354.109 180 350.696 180 347.249C180 343.802 179.319 340.389 177.996 337.205C176.673 334.02 174.734 331.127 172.289 328.69Z" fill="#DC1021"/>
</g>
<path d="M562.395 432.53C553.647 423.802 543.261 416.879 531.83 412.155C520.398 407.431 508.146 405 495.772 405C483.398 405 471.146 407.431 459.715 412.155C448.283 416.879 437.897 423.802 429.15 432.53L410.995 450.635L392.841 432.53C375.172 414.909 351.207 405.009 326.219 405.009C301.23 405.009 277.265 414.909 259.596 432.53C241.927 450.152 232 474.052 232 498.972C232 523.893 241.927 547.793 259.596 565.414L277.75 583.519L396.872 702.318C404.678 710.103 417.312 710.103 425.118 702.318L544.241 583.519L562.395 565.414C571.146 556.69 578.089 546.332 582.825 534.932C587.562 523.532 590 511.312 590 498.972C590 486.632 587.562 474.413 582.825 463.012C578.089 451.612 571.146 441.254 562.395 432.53Z" fill="#F7081D"/>
<mask id="mask1_1023_4743" style="mask-type:alpha" maskUnits="userSpaceOnUse" x="411" y="405" width="179" height="304">
<rect x="411" y="405" width="179" height="304" fill="#D9D9D9"/>
</mask>
<g mask="url(#mask1_1023_4743)">
<path d="M562.395 432.53C553.647 423.802 543.261 416.879 531.83 412.155C520.398 407.431 508.146 405 495.772 405C483.398 405 471.146 407.431 459.715 412.155C448.283 416.879 437.897 423.802 429.15 432.53L410.995 450.635L392.841 432.53C375.172 414.909 351.207 405.009 326.219 405.009C301.23 405.009 277.265 414.909 259.596 432.53C241.927 450.152 232 474.052 232 498.972C232 523.893 241.927 547.793 259.596 565.414L277.75 583.519L396.872 702.318C404.678 710.103 417.312 710.103 425.118 702.318L544.241 583.519L562.395 565.414C571.146 556.69 578.089 546.332 582.825 534.932C587.562 523.532 590 511.312 590 498.972C590 486.632 587.562 474.413 582.825 463.012C578.089 451.612 571.146 441.254 562.395 432.53Z" fill="#DC1021"/>
</g>
</svg>
